Costumes/hat_winter.svg

<?xml version="1.0" encoding="UTF-8" standalone="no"?>
<svg
   version="1.1"
   width="50.999187"
   height="57.176411"
   id="svg15"
   sodipodi:docname="hat_winter.svg"
   xmlns:inkscape="http://www.inkscape.org/namespaces/inkscape"
   xmlns:sodipodi="http://sodipodi.sourceforge.net/DTD/sodipodi-0.dtd"
   xmlns="http://www.w3.org/2000/svg"
   xmlns:svg="http://www.w3.org/2000/svg">
  <defs
     id="defs19" />
  <sodipodi:namedview
     id="namedview17"
     pagecolor="#ffffff"
     bordercolor="#000000"
     borderopacity="0.25"
     inkscape:showpageshadow="2"
     inkscape:pageopacity="0.0"
     inkscape:pagecheckerboard="0"
     inkscape:deskcolor="#d1d1d1" />
  <!-- Exported by Scratch - http://scratch.mit.edu/ -->
  <g
     id="Hat"
     transform="matrix(1.4071003,0,0,1.4071003,-0.26666408,0.36520727)">
    <g
       id="Hat_Base">
      <path
         id="Fill_1_"
         fill="#ba2915"
         d="m 25.742,18.6 c 0,0 -0.447,-4.515 4.863,-7.342 5.309,-2.828 8.259,-5.67 8.665,-6.203 0.309,-0.405 0.959,-1.886 1.701,-1.091 0.746,0.794 0.746,3.82 0,6.946 -0.742,3.125 1.004,5.061 0.801,7.393 0,-0.001 -7.496,-3.424 -16.03,0.297 z"
         transform="matrix(1.885649,0,0,1.885649,-45.4,-2)" />
      <g
         id="Stripes_3_">
        <path
           id="ID0.4795656418427825"
           fill="#871212"
           d="m 26.104,16.218 c 0,0 7.277,-3.978 15.432,0 L 41.108,14.78 c 0,0 -6.283,-3.289 -14.35,0.001 z"
           transform="matrix(1.885649,0,0,1.885649,-45.4,-2)" />
        <path
           id="ID0.2848444706760347"
           fill="#871212"
           d="m 29.274,11.988 c 0,0 6.893,-1.91 11.279,0.92 l 0.262,-1.17 c 0,0 -4.769,-2.703 -9.592,-1.102 z"
           transform="matrix(1.885649,0,0,1.885649,-45.4,-2)" />
        <path
           id="ID0.9288907898589969"
           fill="#871212"
           d="m 36.121,8.104 c 0,0 3.593,0.028 4.747,2.123 l 0.445,-1.062 c 0,0 -0.707,-2.052 -4.247,-2.011 L 36,8.193"
           transform="matrix(1.885649,0,0,1.885649,-45.4,-2)" />
        <path
           id="ID0.18686081282794476"
           fill="#871212"
           d="m 39.27,5.055 c 0,0 1.754,0.308 2.213,1.391 L 41.313,5.055 39.608,4.1 Z"
           transform="matrix(1.885649,0,0,1.885649,-45.4,-2)" />
      </g>
      <path
         id="Outline_6_"
         d="m 25.527,18.966 -0.034,-0.342 c -0.005,-0.046 -0.401,-4.714 4.994,-7.587 5.368,-2.859 8.273,-5.725 8.583,-6.133 0.053,-0.067 0.113,-0.167 0.184,-0.28 0.297,-0.481 0.707,-1.141 1.273,-1.141 0.223,0 0.434,0.104 0.627,0.31 0.928,0.988 0.732,4.357 0.061,7.175 -0.414,1.744 -0.027,3.098 0.348,4.408 0.281,0.987 0.549,1.918 0.459,2.948 l -0.031,0.353 -0.322,-0.146 c -0.031,-0.014 -3.156,-1.415 -7.58,-1.415 -2.864,0 -5.639,0.577 -8.247,1.713 z M 40.528,3.983 c -0.289,0 -0.652,0.588 -0.85,0.904 -0.08,0.129 -0.15,0.242 -0.209,0.319 -0.34,0.447 -3.23,3.333 -8.747,6.272 -4.305,2.292 -4.725,5.658 -4.742,6.748 2.573,-1.069 5.298,-1.611 8.108,-1.611 3.74,0 6.517,0.951 7.451,1.319 0.002,-0.812 -0.223,-1.596 -0.457,-2.421 -0.375,-1.308 -0.799,-2.79 -0.354,-4.661 C 41.525,7.511 41.38,4.764 40.789,4.135 40.696,4.034 40.608,3.983 40.528,3.983 Z"
         transform="matrix(1.885649,0,0,1.885649,-45.4,-2)" />
    </g>
    <path
       id="Puff"
       fill="#ffffff"
       stroke="#000000"
       stroke-width="0.5"
       d="m 40.868,1.173 c 0.496,0 0.946,0.192 1.272,0.501 0.325,0.309 0.527,0.737 0.527,1.208 0,0.471 -0.202,0.899 -0.527,1.208 -0.326,0.309 -0.776,0.501 -1.272,0.501 -0.496,0 -0.946,-0.192 -1.272,-0.501 -0.325,-0.309 -0.527,-0.737 -0.527,-1.208 0,-0.471 0.202,-0.899 0.527,-1.208 0.326,-0.309 0.776,-0.501 1.272,-0.501 z"
       transform="matrix(1.885649,0,0,1.885649,-45.4,-2)" />
    <g
       id="Brim">
      <path
         id="Brim_Fill"
         fill="#ffffff"
         d="m 25.016,19.989 c 0,0 -0.701,-0.748 0,-1.39 0.702,-0.641 4.529,-2.43 8.714,-2.381 4.184,0.049 5.561,0.546 6.635,1.042 1.072,0.496 3.168,1.786 2.268,2.927 0,0 1.271,2.098 0.137,2.098 -0.256,0 -1.029,-0.312 -1.029,-0.312 0,0 -6.354,-3.572 -15.832,0 0,0.001 -2.931,1.208 -0.893,-1.984 z"
         transform="matrix(1.885649,0,0,1.885649,-45.4,-2)" />
      <path
         id="Brim_Outline"
         d="m 42.909,20.19 c 0.168,-0.266 0.215,-0.554 0.143,-0.857 -0.273,-1.138 -2.191,-2.076 -2.572,-2.252 -1.102,-0.509 -2.527,-1.01 -6.715,-1.06 L 33.592,16.02 c -4.166,0 -7.945,1.764 -8.677,2.434 -0.239,0.219 -0.365,0.473 -0.375,0.754 -0.013,0.334 0.145,0.622 0.257,0.782 -0.565,0.745 -0.745,1.401 -0.535,1.952 0.355,0.931 1.893,0.166 1.893,0.166 2.725,-1.01 5.45,-1.522 8.103,-1.522 4.093,0 6.777,1.237 7.318,1.51 0,0 0.865,0.386 1.191,0.376 0.371,-0.012 0.525,-0.258 0.6,-0.588 0.149,-0.655 -0.275,-1.406 -0.458,-1.694 z m 0.07,1.605 c -0.17,0.512 -1.109,0.006 -1.109,0.006 -0.117,-0.066 -2.924,-1.613 -7.613,-1.613 -2.747,0 -5.569,0.538 -8.386,1.601 l -0.143,0.054 c 0,0 -0.903,0.461 -1.096,-0.044 -0.167,-0.439 0.025,-1.006 0.57,-1.684 L 25.31,19.98 c 0,0 0.295,-0.375 0.916,-0.672 0,0 -0.522,0.004 -1.12,0.428 -0.079,-0.115 -0.18,-0.302 -0.171,-0.513 0.007,-0.174 0.087,-0.33 0.247,-0.476 0.613,-0.562 4.311,-2.331 8.409,-2.331 l 0.169,0.001 c 4.108,0.049 5.489,0.533 6.553,1.024 1.051,0.485 2.186,1.287 2.352,1.983 0.045,0.182 0.002,0.35 -0.088,0.514 -0.562,-0.366 -1.043,-0.371 -1.043,-0.371 0.621,0.297 0.916,0.673 0.916,0.673 l 0.01,-10e-4 0.047,0.066 c 0.171,0.236 0.644,0.976 0.472,1.49 z"
         transform="matrix(1.885649,0,0,1.885649,-45.4,-2)" />
    </g>
  </g>
</svg>

<svg version="1.1" width="37" height="41" xmlns="http://www.w3.org/2000/svg" xmlns:xlink="http://www.w3.org/1999/xlink">
  <!-- Exported by Scratch - http://scratch.mit.edu/ -->
  <g id="Hat" transform="matrix(1.4071003198623657, 0, 0, 1.4071003198623657, 0.65, 0.55)">
    <g id="Hat_Base">
      <path id="Fill_1_" fill="#BA2915" d="M 25.742 18.600 C 25.742 18.600 25.295 14.085 30.605 11.258 C 35.914 8.430 38.864 5.588 39.270 5.055 C 39.579 4.650 40.229 3.169 40.971 3.964 C 41.717 4.758 41.717 7.784 40.971 10.910 C 40.229 14.035 41.975 15.971 41.772 18.303 C 41.772 18.302 34.276 14.879 25.742 18.600 Z " transform="matrix(1.8856489658355713, 0, 0, 1.8856489658355713, -45.4, -2)"/>
      <g id="Stripes_3_">
        <path id="ID0.4795656418427825" fill="#871212" d="M 26.104 16.218 C 26.104 16.218 33.381 12.240 41.536 16.218 L 41.108 14.780 C 41.108 14.780 34.825 11.491 26.758 14.781 L 26.104 16.218 Z " transform="matrix(1.8856489658355713, 0, 0, 1.8856489658355713, -45.4, -2)"/>
        <path id="ID0.2848444706760347" fill="#871212" d="M 29.274 11.988 C 29.274 11.988 36.167 10.078 40.553 12.908 L 40.815 11.738 C 40.815 11.738 36.046 9.035 31.223 10.636 L 29.274 11.988 Z " transform="matrix(1.8856489658355713, 0, 0, 1.8856489658355713, -45.4, -2)"/>
        <path id="ID0.9288907898589969" fill="#871212" d="M 36.121 8.104 C 36.121 8.104 39.714 8.132 40.868 10.227 L 41.313 9.165 C 41.313 9.165 40.606 7.113 37.066 7.154 L 36 8.193 " transform="matrix(1.8856489658355713, 0, 0, 1.8856489658355713, -45.4, -2)"/>
        <path id="ID0.18686081282794476" fill="#871212" d="M 39.270 5.055 C 39.270 5.055 41.024 5.363 41.483 6.446 L 41.313 5.055 L 39.608 4.100 L 39.270 5.055 Z " transform="matrix(1.8856489658355713, 0, 0, 1.8856489658355713, -45.4, -2)"/>
      </g>
      <path id="Outline_6_" d="M 25.527 18.966 L 25.493 18.624 C 25.488 18.578 25.092 13.910 30.487 11.037 C 35.855 8.178 38.760 5.312 39.070 4.904 C 39.123 4.837 39.183 4.737 39.254 4.624 C 39.551 4.143 39.961 3.483 40.527 3.483 C 40.750 3.483 40.961 3.587 41.154 3.793 C 42.082 4.781 41.886 8.150 41.215 10.968 C 40.801 12.712 41.188 14.066 41.563 15.376 C 41.844 16.363 42.112 17.294 42.022 18.324 L 41.991 18.677 L 41.669 18.531 C 41.638 18.517 38.513 17.116 34.089 17.116 C 31.225 17.116 28.450 17.693 25.842 18.829 L 25.527 18.966 L 25.527 18.966 Z M 40.528 3.983 C 40.239 3.983 39.876 4.571 39.678 4.887 C 39.598 5.016 39.528 5.129 39.469 5.206 C 39.129 5.653 36.239 8.539 30.722 11.478 C 26.417 13.770 25.997 17.136 25.980 18.226 C 28.553 17.157 31.278 16.615 34.088 16.615 C 37.828 16.615 40.605 17.566 41.539 17.934 C 41.541 17.122 41.316 16.338 41.082 15.513 C 40.707 14.205 40.283 12.723 40.728 10.852 C 41.525 7.511 41.380 4.764 40.789 4.135 C 40.696 4.034 40.608 3.983 40.528 3.983 L 40.528 3.983 Z " transform="matrix(1.8856489658355713, 0, 0, 1.8856489658355713, -45.4, -2)"/>
    </g>
    <path id="Puff" fill="#FFFFFF" stroke="#000000" stroke-width="0.5" d="M 40.868 1.173 C 41.364 1.173 41.814 1.365 42.140 1.674 C 42.465 1.983 42.667 2.411 42.667 2.882 C 42.667 3.353 42.465 3.781 42.140 4.090 C 41.814 4.399 41.364 4.591 40.868 4.591 C 40.372 4.591 39.922 4.399 39.596 4.090 C 39.271 3.781 39.069 3.353 39.069 2.882 C 39.069 2.411 39.271 1.983 39.596 1.674 C 39.922 1.365 40.372 1.173 40.868 1.173 Z " transform="matrix(1.8856489658355713, 0, 0, 1.8856489658355713, -45.4, -2)"/>
    <g id="Brim">
      <path id="Brim_Fill" fill="#FFFFFF" d="M 25.016 19.989 C 25.016 19.989 24.315 19.241 25.016 18.599 C 25.718 17.958 29.545 16.169 33.730 16.218 C 37.914 16.267 39.291 16.764 40.365 17.260 C 41.437 17.756 43.533 19.046 42.633 20.187 C 42.633 20.187 43.904 22.285 42.770 22.285 C 42.514 22.285 41.741 21.973 41.741 21.973 C 41.741 21.973 35.387 18.401 25.909 21.973 C 25.909 21.974 22.978 23.181 25.016 19.989 Z " transform="matrix(1.8856489658355713, 0, 0, 1.8856489658355713, -45.4, -2)"/>
      <path id="Brim_Outline" d="M 42.909 20.190 C 43.077 19.924 43.124 19.636 43.052 19.333 C 42.779 18.195 40.861 17.257 40.480 17.081 C 39.378 16.572 37.953 16.071 33.765 16.021 L 33.592 16.020 C 29.426 16.020 25.647 17.784 24.915 18.454 C 24.676 18.673 24.550 18.927 24.540 19.208 C 24.527 19.542 24.685 19.830 24.797 19.990 C 24.232 20.735 24.052 21.391 24.262 21.942 C 24.617 22.873 26.155 22.108 26.155 22.108 C 28.880 21.098 31.605 20.586 34.258 20.586 C 38.351 20.586 41.035 21.823 41.576 22.096 C 41.576 22.096 42.441 22.482 42.767 22.472 C 43.138 22.460 43.292 22.214 43.367 21.884 C 43.516 21.229 43.092 20.478 42.909 20.190 Z M 42.979 21.795 C 42.809 22.307 41.870 21.801 41.870 21.801 C 41.753 21.735 38.946 20.188 34.257 20.188 C 31.510 20.188 28.688 20.726 25.871 21.789 L 25.728 21.843 C 25.728 21.843 24.825 22.304 24.632 21.799 C 24.465 21.360 24.657 20.793 25.202 20.115 L 25.310 19.980 C 25.310 19.980 25.605 19.605 26.226 19.308 C 26.226 19.308 25.704 19.312 25.106 19.736 C 25.027 19.621 24.926 19.434 24.935 19.223 C 24.942 19.049 25.022 18.893 25.182 18.747 C 25.795 18.185 29.493 16.416 33.591 16.416 L 33.760 16.417 C 37.868 16.466 39.249 16.950 40.313 17.441 C 41.364 17.926 42.499 18.728 42.665 19.424 C 42.710 19.606 42.667 19.774 42.577 19.938 C 42.015 19.572 41.534 19.567 41.534 19.567 C 42.155 19.864 42.450 20.240 42.450 20.240 L 42.460 20.239 L 42.507 20.305 C 42.678 20.541 43.151 21.281 42.979 21.795 Z " transform="matrix(1.8856489658355713, 0, 0, 1.8856489658355713, -45.4, -2)"/>
    </g>
  </g>
</svg>
